priv/static/svgs/icons_new/sport-rainbow-six.svg

<svg width="32" height="32" viewBox="0 0 32 32" fill="none" xmlns="http://www.w3.org/2000/svg">
<path d="M13.3913 9.57216L12.3478 12.6588M11.3043 9.57216L10.2609 12.6588M9.21739 9.57216L8.17391 12.6588M12.8696 18.3175L14.0539 15.2052C14.2835 14.6033 14.8678 14.2021 15.52 14.2021H20.1739M15.4784 14.2021C15.1079 15.7865 16.0001 16.7742 16.0001 16.7742M26.9565 8.02887V7H24.8696V8.02887H10.7826L9.73913 7H7.65217V8.5433C7.27652 8.5433 6.8487 8.51243 6.6087 9.05773C6.49913 9.05773 6.30087 9.05773 6.08696 9.05773C5.44 8.41983 5.04348 9.57216 5.04348 9.57216L6.08696 11.1155V12.1443C5.9513 12.3501 5.70087 12.5456 5.56522 12.6588C5.13217 13.0137 4.52174 12.9417 4.52174 13.1732C4.52174 13.7031 4.36522 14.7165 5.56522 14.7165C6.53565 14.7165 6.6087 15.9923 6.6087 16.7742C6.6087 17.3915 5.8 18.369 5.62783 18.7959C5.46087 19.2229 4.54783 21.4916 4.30783 22.2684C4.06783 23.0503 4 23.5493 4 23.9711C4 24.393 4.65739 25 5.04348 25H10.7826C11.8261 25 10.8713 23.395 11.3043 22.4278C11.7791 21.3681 12.4209 19.3772 12.8696 18.3124H16.7304C17.5548 18.3124 18.2748 18.0243 18.6087 17.2835L20.1739 14.1969H22.7826C23.5443 14.1969 23.8261 13.7031 23.8261 13.168H26.9565C27.52 13.168 28 12.7719 28 12.1392V8.02887H26.9565Z" stroke="black" stroke-miterlimit="10"/>
</svg>

<svg width="32" height="32" viewBox="0 0 32 32" fill="none" xmlns="http://www.w3.org/2000/svg">
  <symbol id="item" viewBox="0 0 32 32" stroke-width="1" fill="none">
    <path d="m13.391 9.572-1.043 3.087m-1.044-3.087-1.043 3.087M9.217 9.572 8.174 12.66m4.696 5.658 1.184-3.112a1.568 1.568 0 0 1 1.466-1.003h4.654m-4.696 0c-.37 1.585.522 2.572.522 2.572M26.956 8.03V7H24.87v1.029H10.783L9.739 7H7.652v1.543c-.375 0-.803-.03-1.043.515h-.522c-.647-.638-1.044.514-1.044.514l1.044 1.544v1.028c-.136.206-.386.402-.522.515-.433.355-1.043.283-1.043.514 0 .53-.157 1.543 1.043 1.543.97 0 1.044 1.276 1.044 2.058 0 .617-.809 1.595-.981 2.022-.167.427-1.08 2.696-1.32 3.472C4.068 23.05 4 23.55 4 23.971 4 24.393 4.657 25 5.043 25h5.74c1.043 0 .088-1.605.521-2.572.475-1.06 1.117-3.05 1.566-4.116h3.86c.825 0 1.545-.288 1.879-1.029l1.565-3.086h2.609c.761 0 1.043-.494 1.043-1.029h3.13c.564 0 1.044-.396 1.044-1.029V8.03h-1.044Z" stroke="currentColor" stroke-miterlimit="10"/>
  </symbol>
</svg>
